X: 124005
T: GLEN OGLE
Q: "Reel."
R: Reel.
%R: reel
B: James Kerr "Merry Melodies" v.1 p.24 s.0 #5
Z: 2017 John Chambers <jc:trillian.mit.edu>
M: C
L: 1/8
K: D
N: The 2nd strain has final repeat but no initial repeat; either "solution" works, giving 16 or 24 bars.
|: A |\
d2fd B2ed | cABc dAFD |\
d2fd B2ed | cABc d2-d ::\
e |\
f2df (gf)ed | cABc dAFD |
f2df (gf)ed | cABc d2(de) |\
f2df (gf)ed | cABc dAFD |\
dfdf  cecA  | Bgec d2-d :|

%%sep 1 1 500
%%sep 1 1 500

